img/arrow-down.svg

<svg fill="none" height="22" viewBox="0 0 22 22" width="22" xmlns="http://www.w3.org/2000/svg"><path d="m11.0083 15.7798c-.3984 0-.7637-.1633-1.0957-.4898l-6.14258-6.28365c-.12175-.12728-.21582-.26563-.28223-.41504-.06087-.15495-.09131-.32096-.09131-.49805 0-.24902.05811-.47314.17432-.67236.12175-.20475.28223-.36524.48145-.48145.19921-.12174.42057-.18261.66406-.18261.37077 0 .69726.14111.97949.42334l5.6528 5.81882h-.6723l5.6362-5.81882c.2822-.28223.606-.42334.9712-.42334.2435 0 .4648.06087.6641.18261.1992.11621.3569.2767.4731.48145.1217.19922.1826.42334.1826.67236 0 .3597-.1245.66406-.3735.91309l-6.1343 6.28365c-.166.1661-.3376.2878-.5146.3653-.1771.0774-.368.119-.5728.1245z" fill="#2c2e2c"/></svg>

<svg width="22" height="22" viewBox="0 0 22 22" fill="none" xmlns="http://www.w3.org/2000/svg">
<path d="M11.0083 15.7798C10.6099 15.7798 10.2446 15.6165 9.9126 15.29L3.77002 9.00635C3.64827 8.87907 3.5542 8.74072 3.48779 8.59131C3.42692 8.43636 3.39648 8.27035 3.39648 8.09326C3.39648 7.84424 3.45459 7.62012 3.5708 7.4209C3.69255 7.21615 3.85303 7.05566 4.05225 6.93945C4.25146 6.81771 4.47282 6.75684 4.71631 6.75684C5.08708 6.75684 5.41357 6.89795 5.6958 7.18018L11.3486 12.999H10.6763L16.3125 7.18018C16.5947 6.89795 16.9185 6.75684 17.2837 6.75684C17.5272 6.75684 17.7485 6.81771 17.9478 6.93945C18.147 7.05566 18.3047 7.21615 18.4209 7.4209C18.5426 7.62012 18.6035 7.84424 18.6035 8.09326C18.6035 8.45296 18.479 8.75732 18.23 9.00635L12.0957 15.29C11.9297 15.4561 11.7581 15.5778 11.5811 15.6553C11.404 15.7327 11.2131 15.7743 11.0083 15.7798Z" fill="#2C2E2C"/>
</svg>
